T: Alex Burke's
M: 6/8
L: 1/8
K: Edor
|:EDE GBE|EDE DFA| EDE GBe|gbg faf|
EDE GBE|EDE DFA|EDE GBe|fed e3:|
|:B2e gee|Bee dBA|Bee Bgg|Baa Bbb|
B2e gee|Bee dBA|GBG F2G|GED E3:|
